X:1
T:I Know That My Redeemer Lives
T:I Know That My Redeemer Lives
T:Arranged by George C. Stebbins
T:H. A. Merrill, 1879
T:Public Domain Courtesy of the Cyber Hymnal™
T:Public Domain Courtesy of the Cyber Hymnal™
C:Arranged by George C. Stebbins
Z:Public Domain
Z:Courtesy of the Cyber Hymnal™
%%score ( 1 2 ) 3
L:1/8
Q:1/4=105
M:4/4
K:D
V:1 treble 
V:2 treble 
V:3 bass 
V:1
 [FA]2 | [Fd]3 [Fc] [Ge][Gd] [Gd]>[GB] | ([FA]4 [DF]2) [DA]2 | [DA]3 [DA] | [CB][CA] [CG]>[CE] | %5
w: 1.~I|know that my Re- deem- er|lives, * And|has pre-|pared a place for|
w: 2.~I’m|trust- ing Je- sus Christ for|all; * I|know His|blood now speaks for|
w: 3.~I’m|now en- rap- tured with the|thought, * I|stand and|won- der at His|
w: 4.~I|know that Je- sus soon will|come, * I|know the|time will not be|
 [DF]6 [FA]2 | [Fd]3 [Fc] [Ge][Gd] [Gd]>[GB] | ([FA]4 [DF]2) [DA]2 | %8
w: me, And|crowns of vic- to- ry He|gives * To|
w: me; I’m|list- ening for the wel- come|call, * To|
w: love— That|He from Heav’n to earth was|brought, * To|
w: long, ’Till|I shall reach my heaven- ly|home, * And|
 [DA]3 [DA] [CB][CA] [CG]>[CE] | D6!fine! ||"^Refrain" [A,D]2 | [A,C]>[CE] [CG]4 [CE]2 | %12
w: those who would His child- ren|be.|||
w: say: “The Mas- ter wait- eth|thee!”|Then|ask me not to|
w: die, that I may live a-|bove.|||
w: join the ev- er- last- ing|song.|||
 D>[DF] [FA]4 [A,D]2 | [A,C]>[CE] [CG]4 [CE]2 | D>[DF] [FA]4!D.C.! |] %15
w: |||
w: lin- ger long A-|mid the gay and|thought- less throng,|
w: |||
w: |||
V:2
 x2 | x8 | x8 | x4 | x4 | x8 | x8 | x8 | x8 | D6 || x2 | x8 | D3/2 x13/2 | x8 | D3/2 x9/2 |] %15
V:3
 [D,D]2 | [D,A,]3 [D,A,] [G,B,][G,B,] [G,B,]>[G,D] | ([D,D]4 [D,A,]2) [D,F,]2 | [A,,F,]3 [A,,F,] | %4
w: D.C.—For|I am on- ly wait- ing|here * To|hear the|
 [A,,G,][A,,F,] [A,,E,]>[A,,A,] | [D,A,]6 [D,A,]2 | [D,A,]3 [D,A,] [G,B,][G,B,] [G,B,]>[G,D] | %7
w: sum- mons: “Child, come|home”; For|I am on- ly wait- ing|
 ([D,D]4 [D,A,]2) [D,F,]2 | [A,,F,]3 [A,,F,] [A,,G,][A,,F,] [A,,E,]>[A,,G,] | [D,F,]6 || [D,F,]2 | %11
w: here * To|hear the sum- mons: “Child, come|home!”||
 [A,,E,]>[A,,E,] [A,,E,]4 [A,,G,]2 | [D,F,]>[D,A,] [D,D]4 [D,F,]2 | %13
w: ||
 [A,,E,]>[A,,E,] [A,,E,]4 [A,,G,]2 | [D,F,]>[D,A,] [D,D]4 |] %15
w: ||

